X: 1
T:The Repeal Of The Union
R:Reel
S:Paddy Canny and Peter O'Loughlin, Clare (fiddles)
N:As played (P O'L much the louder)
Z:Bernie Stocks
H:Bar 7 is a variation every other time through, otherwise part 1 is just
H:the first 4 bars repeated.
H:Played with 50
M:4/4
K:G
| AD{F}ED AD{F}ED | E2cE dEcE | AD{F}ED AD{F}ED | E2cE {G}EDD2 | AD{F}ED AD{F}ED |
E2cE dEcE | cdBc AGED | E2cE {G}EDD2 || ~d3g fdec | ABcA dBcB | Ad~d2 Ad{e}dB |
cAGE {G}EDD2 | ~d3g fdec | ABcd efge | afge dged | ~c3d cAGE ||
